material/.icons/material/garage-open.svg

<svg xmlns="http://www.w3.org/2000/svg" viewBox="0 0 24 24"><path d="M19 20h-2v-9H7v9H5V9l7-4 7 4v11M8 12h8v2H8v-2z"/></svg>

<?xml version="1.0" encoding="UTF-8"?><!DOCTYPE svg PUBLIC "-//W3C//DTD SVG 1.1//EN" "http://www.w3.org/Graphics/SVG/1.1/DTD/svg11.dtd"><svg xmlns="http://www.w3.org/2000/svg" xmlns:xlink="http://www.w3.org/1999/xlink" version="1.1" id="mdi-garage-open" width="24" height="24" viewBox="0 0 24 24"><path d="M19,20H17V11H7V20H5V9L12,5L19,9V20M8,12H16V14H8V12Z" /></svg>
